Sweet-Rainbow/icons/hwinfo.svg

<?xml version="1.0" encoding="UTF-8" standalone="no"?>
<!-- Generator: Gravit.io -->

<svg
   xmlns:dc="http://purl.org/dc/elements/1.1/"
   xmlns:cc="http://creativecommons.org/ns#"
   xmlns:rdf="http://www.w3.org/1999/02/22-rdf-syntax-ns#"
   xmlns:svg="http://www.w3.org/2000/svg"
   xmlns="http://www.w3.org/2000/svg"
   xmlns:sodipodi="http://sodipodi.sourceforge.net/DTD/sodipodi-0.dtd"
   xmlns:inkscape="http://www.inkscape.org/namespaces/inkscape"
   style="isolation:isolate"
   viewBox="0 0 36 36"
   width="48"
   height="48"
   version="1.1"
   id="svg9"
   sodipodi:docname="hwinfo.svg"
   inkscape:version="0.92.4 (5da689c313, 2019-01-14)">
  <metadata
     id="metadata15">
    <rdf:RDF>
      <cc:Work
         rdf:about="">
        <dc:format>image/svg+xml</dc:format>
        <dc:type
           rdf:resource="http://purl.org/dc/dcmitype/StillImage" />
        <dc:title></dc:title>
      </cc:Work>
    </rdf:RDF>
  </metadata>
  <defs
     id="defs13" />
  <sodipodi:namedview
     pagecolor="#ffffff"
     bordercolor="#666666"
     borderopacity="1"
     objecttolerance="10"
     gridtolerance="10"
     guidetolerance="10"
     inkscape:pageopacity="0"
     inkscape:pageshadow="2"
     inkscape:window-width="640"
     inkscape:window-height="480"
     id="namedview11"
     showgrid="false"
     inkscape:zoom="29.365243"
     inkscape:cx="25.325443"
     inkscape:cy="32"
     inkscape:current-layer="svg9"
     units="px" />
  <linearGradient
     id="_lgradient_4"
     x1="-0.0081521738"
     y1="0.059782609"
     x2="0.95147175"
     y2="0.97239321"
     gradientTransform="matrix(46,0,0,46,1,1)"
     gradientUnits="userSpaceOnUse">
    <stop
       offset="0%"
       stop-opacity="1"
       style="stop-color:rgb(0,255,255)"
       id="stop2" />
    <stop
       offset="98.26086956521739%"
       stop-opacity="1"
       style="stop-color:rgb(165,83,168)"
       id="stop4" />
  </linearGradient>
  <g
     id="g826"
     transform="matrix(0.7826087,0,0,0.7826087,-0.7826088,-0.7826088)">
    <path
       id="path7"
       d="m 43,12.55 v 0 c 0,1.104 0.896,2 2,2 v 0 c 1.104,0 2,-0.896 2,-2 v 0 V 6 C 47,3.24 44.76,1 42,1 H 6 C 3.24,1 1,3.24 1,6 v 19 0 c 0,1.104 0.896,2 2,2 v 0 c 1.104,0 2,-0.896 2,-2 V 25 8 C 5,6.344 6.344,5 8,5 h 32 c 1.656,0 3,1.344 3,3 z M 5,35.45 v 0 c 0,-1.104 -0.896,-2 -2,-2 v 0 c -1.104,0 -2,0.896 -2,2 v 0 6.55 c 0,2.76 2.24,5 5,5 h 36 c 2.76,0 5,-2.24 5,-5 v -19.82 0 c 0,-1.104 -0.896,-2 -2,-2 v 0 c -1.104,0 -2,0.896 -2,2 v 0 V 40 c 0,1.656 -1.344,3 -3,3 H 8 C 6.344,43 5,41.656 5,40 Z M 22.732,18 h 2.536 C 26.224,18 27,18.776 27,19.732 V 38.268 C 27,39.224 26.224,40 25.268,40 H 22.732 C 21.776,40 21,39.224 21,38.268 V 19.732 C 21,18.776 21.776,18 22.732,18 Z M 21.277,8.299 v 0 c -1.503,1.503 -1.503,3.943 0,5.446 v 0 c 1.503,1.503 3.943,1.503 5.446,0 v 0 c 1.503,-1.503 1.503,-3.943 0,-5.446 v 0 c -1.503,-1.503 -3.943,-1.503 -5.446,0 z"
       inkscape:connector-curvature="0"
       style="fill:url(#_lgradient_4);fill-rule:evenodd" />
  </g>
</svg>

<?xml version="1.0" encoding="UTF-8" standalone="no"?><!-- Generator: Gravit.io --><svg xmlns="http://www.w3.org/2000/svg" xmlns:xlink="http://www.w3.org/1999/xlink" style="isolation:isolate" viewBox="0 0 48 48" width="48pt" height="48pt"><linearGradient id="_lgradient_4" x1="-0.008152173913043487" y1="0.059782608695652106" x2="0.9514717198922663" y2="0.9723932281646788" gradientTransform="matrix(46,0,0,46,1,1)" gradientUnits="userSpaceOnUse"><stop offset="0%" stop-opacity="1" style="stop-color:rgb(0,255,255)"/><stop offset="98.26086956521739%" stop-opacity="1" style="stop-color:rgb(165,83,168)"/></linearGradient><path d=" M 43 12.55 L 43 12.55 C 43 13.654 43.896 14.55 45 14.55 L 45 14.55 C 46.104 14.55 47 13.654 47 12.55 L 47 12.55 L 47 6 C 47 3.24 44.76 1 42 1 L 6 1 C 3.24 1 1 3.24 1 6 L 1 25 L 1 25 C 1 26.104 1.896 27 3 27 L 3 27 C 4.104 27 5 26.104 5 25 L 5 25 L 5 8 C 5 6.344 6.344 5 8 5 L 40 5 C 41.656 5 43 6.344 43 8 L 43 12.55 L 43 12.55 L 43 12.55 Z  M 5 35.45 L 5 35.45 C 5 34.346 4.104 33.45 3 33.45 L 3 33.45 C 1.896 33.45 1 34.346 1 35.45 L 1 35.45 L 1 42 C 1 44.76 3.24 47 6 47 L 42 47 C 44.76 47 47 44.76 47 42 L 47 22.18 L 47 22.18 C 47 21.076 46.104 20.18 45 20.18 L 45 20.18 C 43.896 20.18 43 21.076 43 22.18 L 43 22.18 L 43 40 C 43 41.656 41.656 43 40 43 L 8 43 C 6.344 43 5 41.656 5 40 L 5 35.45 L 5 35.45 L 5 35.45 Z  M 22.732 18 L 25.268 18 C 26.224 18 27 18.776 27 19.732 L 27 38.268 C 27 39.224 26.224 40 25.268 40 L 22.732 40 C 21.776 40 21 39.224 21 38.268 L 21 19.732 C 21 18.776 21.776 18 22.732 18 L 22.732 18 Z  M 21.277 8.299 L 21.277 8.299 C 19.774 9.802 19.774 12.242 21.277 13.745 L 21.277 13.745 C 22.78 15.248 25.22 15.248 26.723 13.745 L 26.723 13.745 C 28.226 12.242 28.226 9.802 26.723 8.299 L 26.723 8.299 C 25.22 6.796 22.78 6.796 21.277 8.299 Z " fill-rule="evenodd" fill="url(#_lgradient_4)"/></svg>
